X:1
T:Mrs. Garden (of Troup's) [2]
T:Mrs. Garden (of Troup's) [2]
T:Robert Petrie
C:Robert Petrie
L:1/8
M:4/4
K:F
V:1 treble 
V:1
 B | Ac f2 af Tfe/f/ | dfcA B(GGB) | Ac Tf(e/f/) af Tfe/f/ | dfcf AFFB | Ac Tf(e/f/) af Tf(e/f/) | %6
 dfcA BGGB | Acfa gafc | dfcB AFF || A/B/ | cAFc AFcA | B(eTcA) B(GGA/)B/ | cAFc AFcA | %13
 Bdce f/f/f f2 | cAFc AFcA | B(dTcA) BGGB | Acfa Bdgb | afge fFF || %18

